assets/icons/24px/stroke/news-24px.svg

<svg width="24" height="24" viewBox="0 0 24 24" fill="none" xmlns="http://www.w3.org/2000/svg">
<path fill-rule="evenodd" clip-rule="evenodd" d="M10.4342 2H17.0658C17.9523 1.99995 18.7161 1.99991 19.3278 2.08215C19.9833 2.17028 20.6117 2.36902 21.1213 2.87868C21.631 3.38835 21.8297 4.0167 21.9179 4.67221C22.0001 5.28388 22.0001 6.0477 22 6.9342V17.0657C22.0001 17.9522 22.0001 18.716 21.9179 19.3277C21.8297 19.9832 21.631 20.6116 21.1213 21.1212C20.6117 21.6309 19.9833 21.8296 19.3278 21.9178C18.7161 22 17.9523 22 17.0658 21.9999L6.93415 22C6.04768 22 5.28388 22.0001 4.67223 21.9179C4.01671 21.8297 3.38836 21.631 2.87869 21.1213C2.36903 20.6117 2.17028 19.9833 2.08215 19.3278C1.99991 18.7161 1.99995 17.9523 2 17.0658L2 8.4C2 7.84772 2.44772 7.4 3 7.4C3.55229 7.4 4 7.84772 4 8.4V17C4 17.9711 4.00213 18.5988 4.06431 19.0613C4.12263 19.495 4.21678 19.631 4.2929 19.7071C4.36902 19.7832 4.50497 19.8774 4.93872 19.9357C5.40123 19.9979 6.02894 20 7.00002 20L17 19.9999C17.9711 19.9999 18.5988 19.9978 19.0613 19.9356C19.495 19.8773 19.631 19.7831 19.7071 19.707C19.7832 19.6309 19.8774 19.4949 19.9357 19.0612C19.9979 18.5987 20 17.971 20 16.9999V7C20 6.02893 19.9979 5.40121 19.9357 4.93871C19.8774 4.50497 19.7832 4.36902 19.7071 4.2929C19.631 4.21677 19.495 4.12263 19.0613 4.06431C18.5988 4.00213 17.9711 4 17 4H10.5C9.52893 4 8.90122 4.00213 8.43871 4.06431C8.00497 4.12263 7.86902 4.21677 7.7929 4.2929C7.71677 4.36902 7.62263 4.50497 7.56431 4.93871C7.50213 5.40121 7.5 6.02892 7.5 7V15.5356C7.5 16.0879 7.05229 16.5356 6.5 16.5356C5.94772 16.5356 5.5 16.0879 5.5 15.5356V7C5.5 6.97798 5.5 6.95604 5.5 6.93417C5.49995 6.04768 5.49991 5.28387 5.58215 4.67221C5.67028 4.0167 5.86902 3.38835 6.37868 2.87868C6.88835 2.36902 7.5167 2.17028 8.17221 2.08215C8.78387 1.99991 9.54769 1.99995 10.4342 2Z" fill="white"/>
<path fill-rule="evenodd" clip-rule="evenodd" d="M9.5 14.5C9.5 13.9477 9.94772 13.5 10.5 13.5L16.5 13.5C17.0523 13.5 17.5 13.9477 17.5 14.5C17.5 15.0523 17.0523 15.5 16.5 15.5L10.5 15.5C9.94772 15.5 9.5 15.0523 9.5 14.5Z" fill="white"/>
<path fill-rule="evenodd" clip-rule="evenodd" d="M9.5 17.5C9.5 16.9477 9.94772 16.5 10.5 16.5L16.5 16.5C17.0523 16.5 17.5 16.9477 17.5 17.5C17.5 18.0523 17.0523 18.5 16.5 18.5L10.5 18.5C9.94772 18.5 9.5 18.0523 9.5 17.5Z" fill="white"/>
<path fill-rule="evenodd" clip-rule="evenodd" d="M11.9456 5.50001C11.9637 5.50001 11.9819 5.50001 12 5.50001H15C15.0182 5.50001 15.0363 5.50001 15.0544 5.50001C15.4785 5.49992 15.8906 5.49984 16.2305 5.54554C16.6137 5.59706 17.051 5.72259 17.4142 6.0858C17.7774 6.44902 17.903 6.88629 17.9545 7.26949C18.0002 7.60941 18.0001 8.02154 18 8.4456C18 8.46372 18 8.48186 18 8.50001V9.00001C18 9.01817 18 9.03631 18 9.05442C18.0001 9.47849 18.0002 9.89062 17.9545 10.2305C17.903 10.6137 17.7774 11.051 17.4142 11.4142C17.051 11.7774 16.6137 11.903 16.2305 11.9545C15.8906 12.0002 15.4785 12.0001 15.0544 12C15.0363 12 15.0182 12 15 12H12C11.9819 12 11.9637 12 11.9456 12C11.5215 12.0001 11.1094 12.0002 10.7695 11.9545C10.3863 11.903 9.94902 11.7774 9.5858 11.4142C9.22259 11.051 9.09706 10.6137 9.04554 10.2305C8.99984 9.89062 8.99992 9.47849 9.00001 9.05442C9.00001 9.03631 9.00001 9.01817 9.00001 9.00001V8.50001C9.00001 8.48186 9.00001 8.46372 9.00001 8.44561C8.99992 8.02154 8.99984 7.60941 9.04554 7.26949C9.09706 6.88629 9.22259 6.44902 9.5858 6.0858C9.94902 5.72259 10.3863 5.59706 10.7695 5.54554C11.1094 5.49984 11.5215 5.49992 11.9456 5.50001ZM11.0287 7.52871C11.0284 7.53108 11.028 7.53351 11.0277 7.53599C11.0021 7.72618 11 8.00034 11 8.50001V9.00001C11 9.49969 11.0021 9.77385 11.0277 9.96404C11.028 9.96652 11.0284 9.96894 11.0287 9.97132C11.0311 9.97165 11.0335 9.97199 11.036 9.97232C11.2262 9.99789 11.5003 10 12 10H15C15.4997 10 15.7738 9.99789 15.964 9.97232C15.9665 9.97199 15.9689 9.97165 15.9713 9.97132C15.9717 9.96894 15.972 9.96652 15.9723 9.96404C15.9979 9.77385 16 9.49969 16 9.00001V8.50001C16 8.00034 15.9979 7.72618 15.9723 7.53599C15.972 7.53351 15.9717 7.53108 15.9713 7.52871C15.9689 7.52838 15.9665 7.52804 15.964 7.52771C15.7738 7.50214 15.4997 7.50001 15 7.50001H12C11.5003 7.50001 11.2262 7.50214 11.036 7.52771C11.0335 7.52804 11.0311 7.52837 11.0287 7.52871Z" fill="white"/>
</svg>

<svg width="24" height="24" fill="none" xmlns="http://www.w3.org/2000/svg"><path fill-rule="evenodd" clip-rule="evenodd" d="M10.434 2h6.632c.886 0 1.65 0 2.262.082.655.088 1.284.287 1.793.797.51.51.709 1.138.797 1.793C22 5.284 22 6.048 22 6.934v10.132c0 .886 0 1.65-.082 2.262-.088.655-.287 1.284-.797 1.793-.51.51-1.138.709-1.793.797-.612.082-1.376.082-2.262.082H6.934c-.886 0-1.65 0-2.262-.082-.655-.088-1.284-.287-1.793-.797-.51-.51-.709-1.138-.797-1.793C2 18.716 2 17.952 2 17.066V8.4a1 1 0 0 1 2 0V17c0 .971.002 1.599.064 2.061.059.434.153.57.229.646.076.076.212.17.646.229C5.4 19.998 6.029 20 7 20h10c.971 0 1.599-.002 2.061-.064.434-.059.57-.153.646-.229.076-.076.17-.212.229-.646.062-.462.064-1.09.064-2.061V7c0-.971-.002-1.599-.064-2.061-.059-.434-.153-.57-.229-.646-.076-.076-.212-.17-.646-.229C18.6 4.002 17.971 4 17 4h-6.5c-.971 0-1.599.002-2.061.064-.434.059-.57.153-.646.229-.076.076-.17.212-.229.646C7.502 5.4 7.5 6.029 7.5 7v8.536a1 1 0 1 1-2 0V7v-.066c0-.886 0-1.65.082-2.262.088-.655.287-1.284.797-1.793.51-.51 1.138-.709 1.793-.797C8.784 2 9.548 2 10.434 2z" fill="#fff"/><path fill-rule="evenodd" clip-rule="evenodd" d="M9.5 14.5a1 1 0 0 1 1-1h6a1 1 0 1 1 0 2h-6a1 1 0 0 1-1-1zm0 3a1 1 0 0 1 1-1h6a1 1 0 1 1 0 2h-6a1 1 0 0 1-1-1zm2.446-12H15.054c.425 0 .837 0 1.176.046.384.051.821.177 1.184.54.363.363.489.8.54 1.183.046.34.046.753.046 1.177V9.054c0 .424 0 .837-.046 1.176-.051.384-.177.821-.54 1.184-.363.363-.8.489-1.184.54-.34.046-.752.046-1.176.046H11.946c-.425 0-.837 0-1.176-.046-.384-.051-.821-.177-1.184-.54-.363-.363-.489-.8-.54-1.184C9 9.89 9 9.478 9 9.054V8.5v-.054c0-.424 0-.837.046-1.177.051-.383.177-.82.54-1.183.363-.363.8-.489 1.184-.54.34-.046.752-.046 1.176-.046zm-.917 2.029l-.001.007C11.002 7.726 11 8 11 8.5V9c0 .5.002.774.028.964v.007l.008.001c.19.026.464.028.964.028h3c.5 0 .774-.002.964-.028h.007l.001-.008C15.998 9.774 16 9.5 16 9v-.5c0-.5-.002-.774-.028-.964v-.007l-.008-.001C15.774 7.502 15.5 7.5 15 7.5h-3c-.5 0-.774.002-.964.028a.77.77 0 0 0-.007 0z" fill="#fff"/></svg>
